X:1
T:Title
%%score { ( 1 4 ) | ( 2 3 ) }
L:1/8
M:6/8
K:Db
V:1 treble nm="Grand Piano"
V:4 treble 
V:2 bass 
V:3 bass 
V:1
 z3 z2[Q:1/4=84] F/E/ | DF[FA] [Fd][FA][Fd] | dBd [FA]2 F | AAF A>FD | E3- E2 F/E/ | %5
 DF[FA] [Fd][FA][Fd] |[M:5/8] dBd [FA]2 |[M:1/8] [FA] |[M:3/4] BB ec [GB][Gc] | %9
[M:5/8] [Fd]-[Fd]- [Fd]3 |[M:1/8] A |[M:3/4] e3 .e3 | d3 .[FA]3 | [CA]A A[CA] E[A,CA] | [DF]6 | %15
 e3 .e3 | d4 z2 | BB Bc- c/[GB]/[Gc] |[M:5/8] [Fd]-[Fd]- [Fd]3 |] %19
V:2
 z3 z2 .A, | [D,F,][D,A,D][D,D] [D,A,][D,D][D,A,] | [G,B,G][G,DG][G,B,G] [D,D]2 [D,A,D] | %3
 [D,F,D][D,F,D][D,A,D] [D,F,D]>[D,A,D][F,A,] | [A,C]3- [A,C]2 [D,D]/-[D,G,D]/ | %5
 [D,F,][D,A,D][D,D] [D,A,][D,D][D,A,] |[M:5/8] [G,B,G][G,DG][G,B,G] [D,D]2 |[M:1/8] [D,D] | %8
[M:3/4][K:treble] [G,DG][G,DG] [G,B,G][A,G][K:bass] [A,,A,][A,,A,] | %9
[M:5/8] [D,A,]-[D,A,]- [D,A,]3 |[M:1/8] z |[M:3/4][K:treble] G3 .G3 | F4[K:bass] z2 | %13
 z C .C2 CA,, | D,D, D, .D,3 | G3 .G3 | F4[K:bass] z2 | %17
 [G,DG][K:treble][G,DG] [G,DG][A,G]- [A,G]/[K:bass][A,,A,]/[A,,A,] | %18
[M:5/8] [D,A,]-[D,A,]- [D,A,]3 |] %19
V:3
 z3 z2 [D,D]/-[D,G,D]/ | x6 | x6 | x6 | z3 z2 .A, | x6 |[M:5/8] x5 |[M:1/8] x | %8
[M:3/4][K:treble] x4[K:bass] x2 |[M:5/8] x5 |[M:1/8] x |[M:3/4][K:treble] z2 A,[A,C] A,E | %12
 z2[K:bass] D,D, D,[D,A,D] | [A,,A,]3 .[A,,A,]3 | x6 | z2 A,[A,C] A,E | %16
 z2[K:bass] D,[D,D] [D,D][D,D] | x[K:treble] x7/2[K:bass] x3/2 |[M:5/8] x5 |] %19
V:4
 x6 | x6 | x6 | x6 | x6 | x6 |[M:5/8] x5 |[M:1/8] x |[M:3/4] x6 |[M:5/8] x5 |[M:1/8] x | %11
[M:3/4] z2 .C2 Cc | z2 A,D DF | x6 | A,A, A, A,2 A | z2 .C2 Cc | z2 A, [FA]2 [FA] | x6 | %18
[M:5/8] x5 |] %19

